X: 26
T:Tune from Ohrid, Macedonia
O:Macedonia
M:7/8
Z:Richard Robinson <richard:beulah.demon.co.uk>
%%RR_OriginalCollection: 
%%ID:00000683
F:http://www.leeds.ac.uk/music/Info/RRTuneBk/gettune/00000683.abc 2003-01-23 22:23:31 UT
K:Dm
eff edec|cdd dAce|cdd dAce  \
|1 cdd dcde :|2 cdd e2f2 ||
|:fgg gfga|f2f fefg|a2g f2e2|d3 e2f2| \
  fgg gfga|f2f fefg|a2g f2e2|d3 d2z2::
FED A2A2|FED A2A2|d2d c2B2|A2G AGFE|\
FED A2A2|FED A2A2|E2F AGFE|F2E D4|\
E2F AGFE|F2E D4::\
d2 c2B2|(A3 A4)|d2d c2B2|(A3 A4)|\
B2B A2G2|(F3 F4)|A2G F2E2|(D3 D4):|
